dist/images/partners/baucentr.svg

<svg width="195" height="40" viewBox="0 0 195 40" fill="none" xmlns="http://www.w3.org/2000/svg">
<g clip-path="url(#clip0)">
<path d="M39.3608 31.2345C39.3608 21.8855 39.3608 12.5721 39.3608 3.21729C45.4258 3.21729 51.4741 3.21729 57.5639 3.21729C57.5639 4.78319 57.5639 6.36386 57.5639 8.00081C53.2836 8.00081 48.998 8.00081 44.6824 8.00081C44.6824 9.94021 44.6824 11.8237 44.6824 13.7586C46.2062 13.7586 47.7063 13.7704 49.206 13.7549C50.3543 13.743 51.4983 13.774 52.6273 14.0024C56.1425 14.7135 58.5668 17.2043 59.1602 20.6316C59.541 22.831 59.351 24.9473 58.3259 26.9437C57.1721 29.1913 55.2772 30.4422 52.9077 31.021C51.9619 31.252 50.9955 31.2949 50.0259 31.2942C46.6987 31.2916 43.3715 31.2942 40.0443 31.291C39.8308 31.2907 39.6121 31.3333 39.3608 31.2345ZM44.6751 26.4662C46.5123 26.4662 48.3078 26.4539 50.1031 26.4692C52.4024 26.4887 53.9405 24.985 54.0059 22.7436C54.0762 20.3363 52.6475 18.7766 50.6093 18.6493C48.9301 18.5443 47.2496 18.6273 45.57 18.606C45.2801 18.6023 44.9815 18.5446 44.6749 18.6627C44.6751 21.2392 44.6751 23.8107 44.6751 26.4662Z" fill="#898989"/>
<path d="M4.13493 31.2928C3.04621 31.2927 1.95738 31.3017 0.86879 31.2893C0.188109 31.2814 0.00828159 31.0788 0.00733075 30.3767C0.00531023 28.8447 0.0200482 27.3126 0.000199473 25.7808C-0.00788266 25.156 0.22947 24.7373 0.742329 24.3908C5.6956 21.0448 10.6383 17.6826 15.5839 14.3247C18.5483 12.3119 21.5121 10.2982 24.4768 8.28554C25.1852 7.80468 25.4467 7.80444 26.1338 8.27296C27.1967 8.99781 28.2517 9.73538 29.327 10.4409C29.8208 10.7649 30.0711 11.1787 30.0631 11.7797C30.0457 13.0693 30.0447 14.3591 30.0416 15.6488C30.0407 16.1333 29.8312 16.4693 29.4325 16.7391C22.5203 21.4178 15.6122 26.1027 8.7081 30.7938C8.21437 31.1293 7.69676 31.3036 7.10427 31.2961C6.11457 31.2841 5.12463 31.293 4.13493 31.2928Z" fill="#898989"/>
<path d="M178.069 38.8524C178.069 29.4707 178.069 20.1388 178.069 10.7707C179.657 10.7707 181.231 10.7707 182.843 10.7707C182.949 11.3591 182.836 11.9792 182.91 12.6668C183.25 12.3759 183.547 12.1266 183.839 11.8711C185.271 10.6144 186.974 10.3566 188.773 10.5371C190.183 10.6787 191.504 11.1041 192.601 12.0723C193.784 13.1169 194.398 14.4817 194.645 16.0233C195.136 19.0867 195.065 22.1653 194.752 25.2361C194.603 26.6954 194.222 28.0996 193.265 29.2776C192.314 30.4481 191.06 31.0798 189.643 31.355C188.156 31.644 186.661 31.6484 185.224 31.0244C184.431 30.6806 183.797 30.1116 183.074 29.4724C183.074 32.6477 183.074 35.7317 183.074 38.8526C181.375 38.8524 179.744 38.8524 178.069 38.8524ZM189.995 20.9886C189.934 19.8768 189.967 18.7284 189.697 17.6064C189.38 16.2778 188.703 15.2966 187.275 15.0963C185.458 14.8416 183.877 15.416 183.345 17.5308C183.173 18.2194 183.121 18.9143 183.081 19.6131C182.99 21.2426 182.987 22.8714 183.365 24.4697C183.61 25.5036 184.103 26.3606 185.153 26.7663C185.665 26.9643 186.192 26.955 186.723 26.9617C188.294 26.9817 189.211 26.0678 189.596 24.7154C189.944 23.4996 189.922 22.2566 189.995 20.9886Z" fill="#898989"/>
<path d="M104.444 10.7593C104.444 16.1249 104.444 21.4431 104.444 26.7953C106.627 26.7953 108.778 26.7953 110.983 26.7953C110.983 21.4813 110.983 16.149 110.983 10.7756C112.69 10.7756 114.343 10.7756 116.049 10.7756C116.049 16.0841 116.049 21.4171 116.049 26.8076C116.979 26.8076 117.86 26.8076 118.767 26.8076C118.767 30.002 118.767 33.1391 118.767 36.3139C117.198 36.3139 115.626 36.3139 114.001 36.3139C114.001 34.6483 114.001 32.9863 114.001 31.295C109.122 31.295 104.296 31.295 99.4414 31.295C99.4414 24.4379 99.4414 17.6111 99.4414 10.7594C101.097 10.7593 102.733 10.7593 104.444 10.7593Z" fill="#898989"/>
<path d="M62.0533 13.1998C63.3908 11.5804 65.2182 10.7474 67.3807 10.5742C69.726 10.3863 72.0373 10.4623 74.2204 11.4677C76.3725 12.4588 77.4699 14.2314 77.6934 16.5898C77.9071 18.8431 77.7657 21.1036 77.7866 23.3606C77.811 25.9791 77.7923 28.5981 77.7923 31.255C76.1686 31.255 74.5743 31.255 72.9419 31.255C72.8216 30.7291 72.9536 30.1671 72.8808 29.6253C72.8087 29.6063 72.7581 29.5956 72.708 29.6491C71.572 30.8674 70.1384 31.3907 68.5283 31.4814C67.0945 31.5621 65.6916 31.4047 64.3694 30.7947C62.3019 29.841 61.3068 28.126 61.1028 25.8898C60.9769 24.509 61.1417 23.1674 61.8869 21.965C62.8289 20.4448 64.2606 19.6766 65.9388 19.331C67.3651 19.0374 68.8147 19.1403 70.2563 19.1281C71.0673 19.1214 71.8783 19.127 72.7835 19.127C72.7582 18.1171 72.902 17.1228 72.4002 16.1926C72.0094 15.4677 71.3582 15.1183 70.6111 14.937C69.6774 14.7103 68.7206 14.7396 67.7777 14.8334C66.9808 14.9127 66.2688 15.2611 65.6834 15.8418C65.4871 16.0364 65.2826 16.2224 65.0007 16.489C64.0113 15.3847 63.037 14.2976 62.0533 13.1998ZM72.7533 22.5787C72.2622 22.5787 71.8292 22.567 71.3972 22.581C70.1928 22.6201 68.9842 22.478 67.7835 22.6777C66.616 22.8717 65.8925 23.6943 65.8453 24.8928C65.8004 26.0263 66.4263 26.8921 67.5401 27.184C68.5305 27.4436 69.5364 27.452 70.5312 27.2184C71.8372 26.9117 72.5676 26.1261 72.717 24.7997C72.7975 24.0854 72.8215 23.3568 72.7533 22.5787Z" fill="#898989"/>
<path d="M152.132 18.5174C152.132 15.9338 152.132 13.3774 152.132 10.7776C153.814 10.7776 155.468 10.7776 157.166 10.7776C157.166 17.5677 157.166 24.3897 157.166 31.2524C155.526 31.2524 153.873 31.2524 152.157 31.2524C152.157 28.5343 152.157 25.8051 152.157 23.0516C149.945 23.0516 147.793 23.0516 145.577 23.0516C145.577 25.7778 145.577 28.507 145.577 31.2583C143.879 31.2583 142.247 31.2583 140.588 31.2583C140.588 24.4158 140.588 17.6083 140.588 10.7675C142.231 10.7675 143.865 10.7675 145.551 10.7675C145.551 13.3403 145.551 15.9117 145.551 18.5174C147.769 18.5174 149.937 18.5174 152.132 18.5174Z" fill="#898989"/>
<path d="M137.68 22.5547C133.438 22.5547 129.248 22.5547 125.061 22.5547C124.875 25.1383 126.399 26.9414 128.603 27.1944C129.393 27.2851 130.18 27.2775 130.965 27.134C132.176 26.9125 133.155 26.275 134.025 25.3553C134.962 26.3945 135.892 27.4261 136.856 28.4953C135.711 29.7248 134.19 30.7471 132.307 31.1864C130.084 31.7053 127.873 31.6744 125.705 30.9748C123.392 30.2287 121.761 28.6568 120.942 26.3318C119.731 22.8934 119.656 19.3958 120.922 15.9654C122.075 12.8427 124.326 11.0014 127.631 10.5893C130.235 10.2645 132.614 10.8016 134.642 12.5601C136.117 13.8399 136.93 15.5291 137.363 17.4285C137.742 19.0927 137.673 20.7825 137.68 22.5547ZM125.03 19.1034C127.593 19.1034 130.158 19.1034 132.723 19.1034C132.704 16.3968 131.281 14.7203 128.93 14.6804C126.212 14.6344 124.913 16.8834 125.03 19.1034Z" fill="#898989"/>
<path d="M88.2399 23.3961C89.579 19.1835 90.9181 14.9708 92.2602 10.7489C93.9939 10.7489 95.7138 10.7489 97.4932 10.7489C97.0694 11.913 96.6549 13.0468 96.2437 14.182C93.7462 21.0753 91.2583 27.9725 88.7453 34.8599C88.1908 36.3795 87.3319 37.6722 85.7935 38.3551C85.0207 38.6981 84.2006 38.8128 83.3768 38.8663C82.631 38.9149 81.8799 38.8766 81.0996 38.8766C81.0996 37.3719 81.0996 35.8898 81.0996 34.3082C81.5589 34.3082 82.0258 34.3061 82.4927 34.3085C83.5712 34.3142 84.2729 33.7785 84.6291 32.7582C84.9632 31.8006 85.2865 30.8392 85.6163 29.8745C83.3142 23.5063 81.0174 17.1533 78.708 10.7652C80.4556 10.7652 82.1801 10.7652 83.9428 10.7652C85.3287 14.9718 86.7173 19.1861 88.1057 23.4002C88.1504 23.3988 88.1952 23.3975 88.2399 23.3961Z" fill="#898989"/>
<path d="M22.9149 6.2705C22.5996 6.8074 0.651595 21.6536 0.163459 21.6734C-0.046201 21.5346 0.00977961 21.3174 0.00954191 21.1229C0.00728367 17.9991 0.0128698 14.8751 0.00371803 11.7513C0.00205406 11.1644 0.264604 10.7846 0.730396 10.4701C4.16125 8.15291 7.5838 5.82293 11.0091 3.49731C12.14 2.72937 13.2778 1.97171 14.3995 1.18984C14.8296 0.890047 15.2133 0.875523 15.6491 1.1729C17.9574 2.74764 20.2736 4.31051 22.5865 5.87813C22.7356 5.97919 22.8665 6.09743 22.9149 6.2705Z" fill="#898989"/>
<path d="M175.988 10.7524C175.988 12.2494 175.988 13.6925 175.988 15.1952C174.047 15.1952 172.136 15.1952 170.183 15.1952C170.183 20.5706 170.183 25.8864 170.183 31.2476C168.512 31.2476 166.884 31.2476 165.203 31.2476C165.203 25.927 165.203 20.6126 165.203 15.23C163.187 15.23 161.22 15.23 159.232 15.23C159.232 13.6979 159.232 12.2342 159.232 10.7523C164.821 10.7524 170.38 10.7524 175.988 10.7524Z" fill="#898989"/>
<path d="M12.5356 31.0694C18.2774 27.1752 24.0191 23.2812 29.751 19.3939C30.1676 19.6461 30.0538 20.0002 30.0547 20.2944C30.0634 23.5996 30.0603 26.9048 30.0597 30.2101C30.0597 30.3306 30.0485 30.4515 30.0488 30.5722C30.0492 31.0398 29.826 31.2786 29.3626 31.2804C29.1848 31.2809 29.0067 31.2929 28.829 31.2931C23.6635 31.2938 18.4979 31.2936 13.3323 31.2936C13.0981 31.2936 12.8638 31.2936 12.6295 31.2936C12.598 31.2186 12.5668 31.1441 12.5356 31.0694Z" fill="#898989"/>
</g>
<defs>
<clipPath id="clip0">
<rect width="195" height="40" fill="white"/>
</clipPath>
</defs>
</svg>

<svg width="195" height="40" fill="none" xmlns="http://www.w3.org/2000/svg"><g clip-path="url(#clip0)" fill="#898989"><path d="M39.36 31.235V3.216h18.204V8H44.682v5.758c1.524 0 3.024.011 4.524-.004 1.148-.012 2.292.019 3.421.247 3.515.711 5.94 3.202 6.533 6.63.381 2.199.191 4.315-.834 6.312-1.154 2.247-3.049 3.498-5.418 4.077-.946.231-1.913.274-2.882.273-3.327-.002-6.655 0-9.982-.003-.213 0-.432.042-.683-.056zm5.315-4.769c1.837 0 3.633-.012 5.428.003 2.3.02 3.837-1.484 3.903-3.725.07-2.408-1.358-3.967-3.397-4.095-1.679-.105-3.36-.022-5.039-.043-.29-.004-.589-.061-.895.057v7.803zm-40.54 4.827c-1.089 0-2.178.009-3.266-.004-.68-.008-.86-.21-.862-.912C.005 28.845.02 27.313 0 25.78c-.008-.625.23-1.044.742-1.39 4.954-3.346 9.896-6.708 14.842-10.066l8.893-6.04c.708-.48.97-.48 1.657-.012 1.063.725 2.118 1.462 3.193 2.168.494.324.744.738.736 1.339-.017 1.29-.018 2.58-.021 3.869-.001.484-.21.82-.61 1.09-6.912 4.679-13.82 9.364-20.724 14.055-.494.335-1.011.51-1.604.502-.99-.012-1.98-.003-2.97-.003zm173.934 7.559V10.771h4.774c.106.588-.007 1.208.067 1.896.34-.291.637-.54.929-.796 1.432-1.257 3.135-1.514 4.934-1.334 1.41.142 2.731.567 3.828 1.535 1.183 1.045 1.797 2.41 2.044 3.951.491 3.064.42 6.142.107 9.213-.149 1.46-.53 2.864-1.487 4.042-.951 1.17-2.205 1.802-3.622 2.077-1.487.289-2.982.293-4.419-.33-.793-.344-1.427-.913-2.15-1.553v9.38h-5.005zm11.926-17.863c-.061-1.112-.028-2.26-.298-3.383-.317-1.328-.994-2.31-2.422-2.51-1.817-.254-3.398.32-3.93 2.435-.172.688-.224 1.383-.264 2.082-.091 1.63-.094 3.258.284 4.857.245 1.034.738 1.89 1.788 2.296.512.198 1.039.189 1.57.196 1.571.02 2.488-.894 2.873-2.247.348-1.215.326-2.458.399-3.726zM104.444 10.76v16.035h6.539v-16.02h5.066v16.033h2.718v9.506h-4.766v-5.019h-14.56V10.759h5.003zM62.053 13.2c1.338-1.62 3.165-2.453 5.328-2.626 2.345-.188 4.656-.112 6.84.894 2.151.99 3.249 2.763 3.472 5.122.214 2.253.073 4.514.094 6.77.024 2.62.005 5.238.005 7.895h-4.85c-.12-.526.012-1.088-.061-1.63-.072-.019-.123-.03-.173.024-1.136 1.218-2.57 1.742-4.18 1.832-1.434.081-2.836-.076-4.159-.686-2.067-.954-3.062-2.669-3.266-4.905-.126-1.381.039-2.723.784-3.925.942-1.52 2.374-2.288 4.052-2.634 1.426-.294 2.876-.19 4.317-.203.811-.007 1.622-.001 2.528-.001-.026-1.01.118-2.004-.384-2.934-.39-.725-1.042-1.075-1.789-1.256-.934-.227-1.89-.197-2.833-.104-.797.08-1.51.428-2.095 1.009-.196.194-.4.38-.682.647l-2.948-3.29zm10.7 9.379c-.49 0-.924-.012-1.356.002-1.204.04-2.413-.103-3.614.097-1.167.194-1.89 1.016-1.938 2.215-.045 1.133.581 2 1.695 2.291a6.14 6.14 0 002.991.034c1.306-.306 2.037-1.092 2.186-2.418.08-.715.105-1.443.036-2.221zm79.379-4.062v-7.74h5.034v20.475h-5.009v-8.2h-6.58v8.206h-4.989v-20.49h4.963v7.75h6.581zm-14.452 4.038h-12.619c-.186 2.583 1.338 4.386 3.542 4.64.79.09 1.577.082 2.362-.061 1.211-.221 2.19-.859 3.06-1.779l2.831 3.14c-1.145 1.23-2.666 2.252-4.549 2.691-2.223.52-4.434.488-6.602-.211-2.313-.746-3.944-2.318-4.763-4.643-1.211-3.439-1.286-6.936-.02-10.367 1.153-3.122 3.404-4.964 6.709-5.376 2.604-.325 4.983.213 7.011 1.971 1.475 1.28 2.288 2.97 2.721 4.868.379 1.665.31 3.354.317 5.127zm-12.65-3.452h7.693c-.019-2.706-1.442-4.383-3.793-4.423-2.718-.046-4.017 2.203-3.9 4.423zm-36.79 4.293l4.02-12.647h5.233c-.424 1.164-.838 2.298-1.25 3.433-2.497 6.893-4.985 13.79-7.498 20.678-.554 1.52-1.413 2.812-2.952 3.495-.772.343-1.592.458-2.416.511-.746.049-1.497.01-2.277.01v-4.568c.459 0 .926-.002 1.393 0 1.078.006 1.78-.53 2.136-1.55.334-.957.657-1.919.987-2.884l-6.908-19.109h5.235L88.106 23.4l.134-.004zM22.915 6.27C22.6 6.808.652 21.654.163 21.674c-.21-.138-.153-.356-.153-.55C.007 18 .013 14.876.004 11.752c-.002-.587.26-.966.726-1.28 3.431-2.318 6.854-4.648 10.28-6.974 1.13-.768 2.268-1.525 3.39-2.307.43-.3.813-.314 1.25-.017 2.307 1.575 4.624 3.138 6.937 4.705.149.101.28.22.328.393zm153.073 4.482v4.443h-5.805v16.053h-4.98V15.23h-5.971v-4.478h16.756zM12.536 31.07L29.75 19.393c.417.252.303.606.304.9.008 3.306.005 6.61.005 9.916 0 .12-.011.241-.011.362 0 .468-.223.707-.686.708-.178 0-.356.013-.534.013h-16.2l-.093-.224z"/></g><defs><clipPath id="clip0"><path fill="#fff" d="M0 0h195v40H0z"/></clipPath></defs></svg>
